X:1
T:Title
%%score { 1 | 2 }
L:1/8
M:4/4
K:Bb
V:1 treble nm="Grand Piano"
V:2 bass 
V:1
 z4 [DB]4 | [DB]2 [DB]2 G2 G2 | F4 E4 | D4 [DF]4 | G2 G2 G2 G2 | [EA]4 [DB]4 |[M:5/4] A6 A4 | %7
[M:4/4] A2 A2 A2 A2 | [GB]4 [=EG]4 | [FA]4 [FA]4 | [FB]2 [FB]2 [GB]2 [FB]2 | [Ec]4 A4 | %12
[M:2/4] [DB]4 |] %13
V:2
 z4 [B,,B,]4 | [B,,B,]2 [B,,B,]2 [E,B,E]2 [E,B,E]2 | [F,B,D]4 [F,A,C]4 | [B,,B,]4 [B,,B,]4 | %4
 [E,B,E]2 [E,B,E]2 [E,B,E]2 [E,B,E]2 | [C,F,]4 [B,,F,]4 |[M:5/4] [F,C]6 [F,CF]4 | %7
[M:4/4] [F,CF]2 [F,CF]2 [F,CF]2 [F,CF]2 | [C,C]4 [C,C]4 | [F,C]4 [F,C]4 | %10
 [D,B,]2 [D,B,]2 [D,B,]2 [D,B,]2 | [C,G,]4 [F,C]4 |[M:2/4] [B,,F,]4 |] %13

